!!!COM: Robert Schumann
!!!CNT: Deutsch
!!!TXO: Deutsch
!!!OTL: Zum Schluss
!!!LYR: Ru2ckert
!!!OPR: Myrten
!!!OPS: Op. 25
!!!ONM: No. 26
!!!ENC: Ben Fuhrman
!!!YOR: Schumann Lieder - Max Friedlaender, ed.,
!!!YOR: New York: C. F. Peters, Vol. 1
!!!ODT: 1840/
!!NB: Vocal melody and text only encoded.
!!NB: First instance of melodic material only encoded.
**kern	**silbe
*clefG2	*
*k[b-e-a-d-g-c-]	*
*M4/4	*
!!created: 5/15/06 16:05
!!proofed and posted: 5/15/06 16:05
!!edit time: 20 minutes
=1	=1
{4.b-	{Hier
8b-	in
4b-	die-
4b-	-sen
=2	=2
4.cc-	erd-
8b-	-be-
4b-	klomm'
4b-	nen
=3	=3
4.g-	Lu2f-
8g-	-ten
(4g-	wo
8f)	|
8g-	die
=4	=4
4.b-	Weh-
8a-	mut
2a-}	taut,}
=5	=5
{4.cc-	{hab'
8cc-	ich
4cc-	dir
4cc-	den
=6	=6
4.ee-	un-
8b-	-voll-
4cc-	-komm'
4a-	nen
=7	=7
4.g-	Kranz
8g-	ge-
(4g-	-floch-
8f)	|
8g-}	-ten,}
=8	=8
{4.a-	{Schwe-
8g-	-ster,
2g-}	Braut!}
=9	=9
4r	.
{8a-	{Wenn
8a-	un
4a-	dro-
4b-	-ben
=10	=10
4.cc-	auf-
8cc-	-ge-
4cc-	-nom-
4b-	-men
=11	=11
4.a-	Got-
8a-	-ten
4.b-	Sonn'
8gn	ent-
=12	=12
4gn	-ge-
4gn	-gen
2a-}	schaut,}
=13	=13
4r	.
{8cc-	{wird
8cc-	die
(8ee-	Lie-
8cc-)	|
4b-}	-be}
=14	=14
4r	.
{8a-	{den
8a-	voll-
(8cc-	komm'
8a-)	|
4g-	nen
=15	=15
4.e-	Kranz
8e-	uns
4e-	flech-
4a-	-ten,
=16	=16
4.f	Schwes-
8g-	-ter,
2g-}	Braut!}
==	==
*-	*-
